X:464
T: UNSER ALTER STABSVERWALTER
N: E1719
O: Europa, Mitteleuropa, Deutschland, Westfalen, Soest
R: Spott - Lied, Satire
M: 2/4
L: 1/16
K: F
 | c2c2c2f2 | A2A2A2c2 |
F2F2G2A2 | B4A4 |
c2c2c2f2 | A2A2A2c2 |
F2F2G2A2 | B4A4 |
c2c2f2f2 | d4B4 |
d2d2f2d2 | c4A4 |
c2B2A2G2 | F2FGF2F2 |
G2B2E2G2 | F4z4

@@@ Tune index: 5148
